;FLAVOR:Marlin
;TIME:29400
;Filament used: 32.575m
;Layer height: 0.28
;MINX:19.504
;MINY:22.064
;MINZ:0.28
;MAXX:275.377
;MAXY:277.936
;MAXZ:35
;Generated with Cura_SteamEngine 4.8.0
M140 S50
M105
M190 S50
M104 S200
M105
M109 S200
M82 ;absolute extrusion mode
M201 X500.00 Y500.00 Z100.00 E5000.00 ;Setup machine max acceleration
M203 X500.00 Y500.00 Z10.00 E50.00 ;Setup machine max feedrate
M204 P500.00 R1000.00 T500.00 ;Setup Print/Retract/Travel acceleration
M205 X8.00 Y8.00 Z0.40 E5.00 ;Setup Jerk
M220 S100 ;Reset Feedrate
M221 S100 ;Reset Flowrate

G28 ;Home
G29 ;Auto bed Level

G92 E0 ;Reset Extruder
G1 Z2.0 F3000 ;Move Z Axis up
G1 X10.1 Y20 Z0.28 F5000.0 ;Move to start position
G1 X10.1 Y200.0 Z0.28 F1500.0 E15 ;Draw the first line
G1 X10.4 Y200.0 Z0.28 F5000.0 ;Move to side a little
G1 X10.4 Y20 Z0.28 F1500.0 E30 ;Draw the second line
G92 E0 ;Reset Extruder
G1 Z2.0 F3000 ;Move Z Axis up

G92 E0
G92 E0
G1 F2700 E-5
;LAYER_COUNT:125
;LAYER:0
M107
G0 F6000 X233.849 Y24.347 Z0.28
;TYPE:SKIRT
G1 F2700 E0
G1 F1200 X234.435 Y23.817 E0.03679
G1 X235.071 Y23.35 E0.07353
G1 X235.751 Y22.949 E0.11029
G1 X236.469 Y22.619 E0.14709
G1 X237.216 Y22.364 E0.18384
G1 X237.985 Y22.185 E0.22061
G1 X238.769 Y22.085 E0.25741
G1 X239.558 Y22.064 E0.29416
G1 X240.345 Y22.124 E0.33091
G1 X241.123 Y22.263 E0.36771
G1 X241.882 Y22.48 E0.40447
G1 X242.616 Y22.772 E0.44126
G1 X243.316 Y23.137 E0.47802
G1 X243.976 Y23.571 E0.5148
G1 X244.588 Y24.07 E0.55157
G1 X244.879 Y24.346 E0.57024
G1 X273.094 Y52.56 E2.42821
G1 X273.624 Y53.146 E2.46501
G1 X274.091 Y53.783 E2.50178
G1 X274.492 Y54.463 E2.53854
G1 X274.822 Y55.181 E2.57534
G1 X275.077 Y55.928 E2.61209
G1 X275.256 Y56.697 E2.64886
G1 X275.356 Y57.48 E2.68561
G1 X275.377 Y58.27 E2.72241
G1 X275.317 Y59.057 E2.75917
G1 X275.178 Y59.835 E2.79597
G1 X274.961 Y60.594 E2.83272
G1 X274.669 Y61.328 E2.86951
G1 X274.304 Y62.028 E2.90627
G1 X273.87 Y62.688 E2.94305
G1 X273.371 Y63.3 E2.97982
G1 X273.094 Y63.591 E2.99853
G1 X61.032 Y275.653 E16.96317
G1 X60.446 Y276.183 E16.99996
G1 X59.81 Y276.65 E17.0367
G1 X59.13 Y277.051 E17.07346
G1 X58.412 Y277.381 E17.11026
G1 X57.665 Y277.636 E17.14701
G1 X56.896 Y277.815 E17.18378
G1 X56.112 Y277.915 E17.22058
G1 X55.323 Y277.936 E17.25733
G1 X54.536 Y277.876 E17.29408
G1 X53.758 Y277.737 E17.33088
G1 X52.999 Y277.52 E17.36764
G1 X52.265 Y277.228 E17.40443
G1 X51.565 Y276.863 E17.44119
G1 X50.905 Y276.429 E17.47797
G1 X50.293 Y275.93 E17.51474
G1 X50.002 Y275.654 E17.53341
G1 X21.787 Y247.44 E19.39139
G1 X21.257 Y246.854 E19.42818
G1 X20.79 Y246.217 E19.46496
G1 X20.389 Y245.537 E19.50171
G1 X20.059 Y244.819 E19.53851
G1 X19.804 Y244.072 E19.57526
G1 X19.625 Y243.303 E19.61203
G1 X19.525 Y242.52 E19.64879
G1 X19.504 Y241.73 E19.68558
G1 X19.564 Y240.943 E19.72234
G1 X19.703 Y240.165 E19.75914
G1 X19.92 Y239.406 E19.79589
G1 X20.212 Y238.672 E19.83268
G1 X20.577 Y237.972 E19.86944
G1 X21.011 Y237.312 E19.90622
G1 X21.51 Y236.7 E19.94299
G1 X21.787 Y236.409 E19.9617
G1 X233.849 Y24.347 E33.92634
G0 F6000 X234.131 Y24.629
G1 F1200 X234.703 Y24.115 E33.96215
G1 X235.325 Y23.662 E33.99798
G1 X235.99 Y23.276 E34.03378
G1 X236.692 Y22.961 E34.06961
G1 X237.423 Y22.721 E34.10544
G1 X238.174 Y22.558 E34.14122
G1 X238.939 Y22.474 E34.17706
G1 X239.708 Y22.47 E34.21287
G1 X240.473 Y22.546 E34.24866
G1 X241.227 Y22.7 E34.2845
G1 X241.96 Y22.932 E34.3203
G1 X242.665 Y23.239 E34.3561
G1 X243.335 Y23.618 E34.39195
G1 X243.962 Y24.064 E34.42777
G1 X244.596 Y24.629 E34.46732
G1 X272.811 Y52.843 E36.32529
G1 X273.326 Y53.415 E36.36113
G1 X273.779 Y54.036 E36.39692
G1 X274.165 Y54.702 E36.43277
G1 X274.48 Y55.404 E36.46859
G1 X274.72 Y56.134 E36.50438
G1 X274.883 Y56.886 E36.54021
G1 X274.967 Y57.651 E36.57604
G1 X274.971 Y58.42 E36.61185
G1 X274.895 Y59.185 E36.64765
G1 X274.741 Y59.939 E36.68348
G1 X274.509 Y60.672 E36.71928
G1 X274.202 Y61.377 E36.75509
G1 X273.823 Y62.047 E36.79093
G1 X273.377 Y62.674 E36.82676
G1 X272.812 Y63.309 E36.86634
G1 X60.75 Y275.371 E50.83098
G1 X60.178 Y275.885 E50.86679
G1 X59.556 Y276.338 E50.90262
G1 X58.891 Y276.724 E50.93842
G1 X58.189 Y277.039 E50.97425
G1 X57.458 Y277.279 E51.01008
G1 X56.707 Y277.442 E51.04586
G1 X55.942 Y277.526 E51.0817
G1 X55.173 Y277.53 E51.11751
G1 X54.408 Y277.454 E51.1533
G1 X53.654 Y277.3 E51.18914
G1 X52.921 Y277.068 E51.22494
G1 X52.216 Y276.761 E51.26074
G1 X51.546 Y276.382 E51.29659
G1 X50.919 Y275.936 E51.33242
G1 X50.285 Y275.371 E51.37196
G1 X22.07 Y247.157 E53.22993
G1 X21.555 Y246.585 E53.26577
G1 X21.102 Y245.964 E53.30156
G1 X20.716 Y245.298 E53.33741
G1 X20.401 Y244.596 E53.37324
G1 X20.161 Y243.866 E53.40902
G1 X19.998 Y243.114 E53.44485
G1 X19.914 Y242.349 E53.48068
G1 X19.91 Y241.58 E53.51649
G1 X19.986 Y240.815 E53.55229
G1 X20.14 Y240.061 E53.58812
G1 X20.372 Y239.328 E53.62392
G1 X20.679 Y238.623 E53.65973
G1 X21.058 Y237.953 E53.69557
G1 X21.504 Y237.326 E53.7314
G1 X22.069 Y236.691 E53.77098
G1 X234.131 Y24.629 E67.73562
G0 F6000 X234.414 Y24.912
G1 F1200 X234.971 Y24.412 E67.77048
G1 X235.577 Y23.975 E67.80527
G1 X236.227 Y23.604 E67.84012
G1 X236.913 Y23.305 E67.87496
G1 X237.627 Y23.081 E67.90981
G1 X238.36 Y22.934 E67.94462
G1 X239.105 Y22.867 E67.97945
G1 X239.853 Y22.879 E68.01428
G1 X240.596 Y22.971 E68.04914
G1 X241.324 Y23.142 E68.08396
G1 X242.03 Y23.389 E68.11879
G1 X242.705 Y23.711 E68.15362
G1 X243.343 Y24.103 E68.18848
G1 X243.934 Y24.56 E68.22327
G1 X244.314 Y24.912 E68.24739
G1 X272.529 Y53.126 E70.10536
G1 X273.029 Y53.683 E70.14022
G1 X273.466 Y54.289 E70.17501
G1 X273.837 Y54.939 E70.20986
G1 X274.136 Y55.625 E70.2447
G1 X274.36 Y56.339 E70.27955
G1 X274.507 Y57.072 E70.31436
G1 X274.574 Y57.817 E70.34919
G1 X274.562 Y58.565 E70.38402
G1 X274.47 Y59.307 E70.41884
G1 X274.299 Y60.036 E70.4537
G1 X274.052 Y60.742 E70.48853
G1 X273.73 Y61.417 E70.52336
G1 X273.338 Y62.055 E70.55822
G1 X272.881 Y62.646 E70.59301
G1 X272.529 Y63.026 E70.61713
G1 X60.467 Y275.088 E84.58177
G1 X59.91 Y275.588 E84.61663
G1 X59.304 Y276.025 E84.65142
G1 X58.654 Y276.396 E84.68627
G1 X57.968 Y276.695 E84.72111
G1 X57.254 Y276.919 E84.75596
G1 X56.521 Y277.066 E84.79077
G1 X55.776 Y277.133 E84.8256
G1 X55.028 Y277.121 E84.86043
G1 X54.285 Y277.029 E84.89529
G1 X53.557 Y276.858 E84.93012
G1 X52.851 Y276.611 E84.96494
G1 X52.176 Y276.289 E84.99977
G1 X51.538 Y275.897 E85.03464
G1 X50.947 Y275.44 E85.06942
G1 X50.567 Y275.088 E85.09354
G1 X22.352 Y246.874 E86.95151
G1 X21.852 Y246.317 E86.98637
G1 X21.415 Y245.711 E87.02116
G1 X21.044 Y245.061 E87.05601
G1 X20.745 Y244.375 E87.09085
G1 X20.521 Y243.661 E87.1257
G1 X20.374 Y242.928 E87.16051
G1 X20.307 Y242.183 E87.19534
G1 X20.319 Y241.435 E87.23017
G1 X20.411 Y240.693 E87.26499
G1 X20.582 Y239.964 E87.29986
G1 X20.829 Y239.258 E87.33468
G1 X21.151 Y238.583 E87.36951
G1 X21.543 Y237.945 E87.40437
G1 X22 Y237.354 E87.43916
G1 X22.352 Y236.974 E87.46328
G1 X234.414 Y24.912 E101.42793
G0 F6000 X234.697 Y25.195
G1 F1200 X235.238 Y24.711 E101.46173
G1 X235.829 Y24.288 E101.49557
G1 X236.463 Y23.934 E101.52938
G1 X237.132 Y23.651 E101.56321
G1 X237.828 Y23.443 E101.59703
G1 X238.543 Y23.313 E101.63087
G1 X239.267 Y23.263 E101.66466
G1 X239.993 Y23.292 E101.69849
G1 X240.711 Y23.401 E101.73231
G1 X241.413 Y23.588 E101.76614
G1 X242.09 Y23.851 E101.79996
G1 X242.734 Y24.187 E101.83378
G1 X243.337 Y24.592 E101.8676
G1 X244.031 Y25.195 E101.91041
G1 X272.246 Y53.409 E103.76839
G1 X272.73 Y53.95 E103.80219
G1 X273.153 Y54.541 E103.83603
G1 X273.507 Y55.175 E103.86984
G1 X273.79 Y55.844 E103.90367
G1 X273.998 Y56.54 E103.93749
G1 X274.128 Y57.255 E103.97133
G1 X274.178 Y57.979 E104.00512
G1 X274.149 Y58.705 E104.03896
G1 X274.04 Y59.423 E104.07277
G1 X273.853 Y60.125 E104.1066
G1 X273.59 Y60.802 E104.14042
G1 X273.254 Y61.446 E104.17424
G1 X272.849 Y62.049 E104.20807
G1 X272.246 Y62.743 E104.25088
G1 X60.184 Y274.805 E118.21552
G1 X59.643 Y275.289 E118.24932
G1 X59.052 Y275.712 E118.28316
G1 X58.418 Y276.066 E118.31698
G1 X57.749 Y276.349 E118.3508
G1 X57.053 Y276.557 E118.38462
G1 X56.338 Y276.687 E118.41846
G1 X55.614 Y276.737 E118.45226
G1 X54.888 Y276.708 E118.48609
G1 X54.17 Y276.599 E118.51991
G1 X53.468 Y276.412 E118.55373
G1 X52.791 Y276.149 E118.58755
G1 X52.147 Y275.813 E118.62138
G1 X51.544 Y275.408 E118.6552
G1 X50.85 Y274.805 E118.69801
G1 X22.635 Y246.591 E120.55598
G1 X22.151 Y246.05 E120.58978
G1 X21.728 Y245.459 E120.62363
G1 X21.374 Y244.825 E120.65744
G1 X21.091 Y244.156 E120.69126
G1 X20.883 Y243.46 E120.72509
G1 X20.753 Y242.745 E120.75893
G1 X20.703 Y242.021 E120.79272
G1 X20.732 Y241.295 E120.82655
G1 X20.841 Y240.577 E120.86037
G1 X21.028 Y239.875 E120.89419
G1 X21.291 Y239.198 E120.92801
G1 X21.627 Y238.554 E120.96184
G1 X22.032 Y237.951 E120.99566
G1 X22.635 Y237.257 E121.03847
G1 X234.697 Y25.195 E135.00312
G0 F6000 X234.98 Y25.478
G1 F1200 X235.505 Y25.009 E135.0359
G1 X236.08 Y24.603 E135.06867
G1 X236.698 Y24.265 E135.10147
G1 X237.349 Y23.998 E135.13424
G1 X238.027 Y23.808 E135.16702
G1 X238.722 Y23.695 E135.19981
G1 X239.425 Y23.662 E135.23258
G1 X240.128 Y23.709 E135.26539
G1 X240.82 Y23.835 E135.29814
G1 X241.494 Y24.039 E135.33093
G1 X242.14 Y24.318 E135.3637
G1 X242.751 Y24.669 E135.39651
G1 X243.318 Y25.086 E135.42928
G1 X243.748 Y25.478 E135.45637
G1 X271.963 Y53.692 E137.31435
G1 X272.432 Y54.217 E137.34713
G1 X272.838 Y54.792 E137.3799
G1 X273.176 Y55.409 E137.41266
G1 X273.442 Y56.061 E137.44545
G1 X273.633 Y56.739 E137.47825
G1 X273.746 Y57.434 E137.51104
G1 X273.779 Y58.137 E137.54381
G1 X273.732 Y58.839 E137.57657
G1 X273.606 Y59.532 E137.60937
G1 X273.402 Y60.206 E137.64216
G1 X273.123 Y60.852 E137.67492
G1 X272.772 Y61.463 E137.70774
G1 X272.355 Y62.03 E137.74051
G1 X271.963 Y62.46 E137.7676
G1 X59.901 Y274.522 E151.73225
G1 X59.376 Y274.991 E151.76503
G1 X58.801 Y275.397 E151.7978
G1 X58.183 Y275.735 E151.8306
G1 X57.532 Y276.002 E151.86337
G1 X56.854 Y276.192 E151.89615
G1 X56.159 Y276.305 E151.92894
G1 X55.456 Y276.338 E151.96171
G1 X54.753 Y276.291 E151.99452
G1 X54.061 Y276.165 E152.02727
G1 X53.387 Y275.961 E152.06006
G1 X52.741 Y275.682 E152.09283
G1 X52.13 Y275.331 E152.12564
G1 X51.563 Y274.914 E152.15841
G1 X51.133 Y274.522 E152.18551
G1 X22.918 Y246.308 E154.04348
G1 X22.449 Y245.783 E154.07626
G1 X22.043 Y245.208 E154.10904
G1 X21.705 Y244.591 E154.14179
G1 X21.439 Y243.939 E154.17458
G1 X21.248 Y243.261 E154.20738
G1 X21.135 Y242.566 E154.24017
G1 X21.102 Y241.863 E154.27294
G1 X21.149 Y241.161 E154.3057
G1 X21.275 Y240.468 E154.3385
G1 X21.479 Y239.794 E154.37129
G1 X21.758 Y239.148 E154.40406
G1 X22.109 Y238.537 E154.43687
G1 X22.526 Y237.97 E154.46964
G1 X22.918 Y237.54 E154.49673
G1 X234.98 Y25.478 E168.46138
G0 F6000 X235.263 Y25.761
G1 F1200 X235.772 Y25.308 E168.49311
G1 X236.33 Y24.919 E168.52478
G1 X236.93 Y24.597 E168.55649
G1 X237.564 Y24.348 E168.58821
G1 X238.223 Y24.175 E168.61993
G1 X238.897 Y24.081 E168.65162
G1 X239.578 Y24.066 E168.68334
G1 X240.255 Y24.131 E168.71501
G1 X240.921 Y24.275 E168.74673
G1 X241.565 Y24.496 E168.77844
G1 X242.179 Y24.791 E168.81016
G1 X242.753 Y25.155 E168.84181
G1 X243.465 Y25.761 E168.88534
G1 X271.68 Y53.975 E170.74332
G1 X272.133 Y54.484 E170.77504
G1 X272.522 Y55.042 E170.80672
G1 X272.844 Y55.642 E170.83842
G1 X273.093 Y56.276 E170.87014
G1 X273.266 Y56.934 E170.90182
G1 X273.36 Y57.609 E170.93356
G1 X273.375 Y58.289 E170.96523
G1 X273.31 Y58.967 E170.99694
G1 X273.166 Y59.633 E171.02867
G1 X272.945 Y60.277 E171.06038
G1 X272.65 Y60.89 E171.09205
G1 X272.286 Y61.465 E171.12374
G1 X271.68 Y62.177 E171.16728
G1 X59.618 Y274.239 E185.13192
G1 X59.109 Y274.692 E185.16365
G1 X58.551 Y275.081 E185.19532
G1 X57.951 Y275.403 E185.22703
G1 X57.317 Y275.652 E185.25875
G1 X56.658 Y275.825 E185.29047
G1 X55.984 Y275.919 E185.32216
G1 X55.303 Y275.934 E185.35388
G1 X54.626 Y275.869 E185.38555
G1 X53.96 Y275.725 E185.41728
G1 X53.316 Y275.504 E185.44898
G1 X52.702 Y275.209 E185.4807
G1 X52.128 Y274.845 E185.51235
G1 X51.416 Y274.239 E185.55589
G1 X23.201 Y246.025 E187.41386
G1 X22.748 Y245.516 E187.44559
G1 X22.359 Y244.958 E187.47726
G1 X22.037 Y244.358 E187.50897
G1 X21.788 Y243.724 E187.54068
G1 X21.615 Y243.066 E187.57236
G1 X21.521 Y242.391 E187.6041
G1 X21.506 Y241.711 E187.63577
G1 X21.571 Y241.033 E187.66749
G1 X21.715 Y240.367 E187.69921
G1 X21.936 Y239.723 E187.73092
G1 X22.231 Y239.11 E187.76259
G1 X22.595 Y238.535 E187.79428
G1 X23.201 Y237.823 E187.83782
G1 X235.263 Y25.761 E201.80246
G0 F6000 X235.546 Y26.044
G1 F1200 X236.038 Y25.608 E201.83308
G1 X236.579 Y25.236 E201.86365
G1 X237.161 Y24.932 E201.89422
G1 X237.776 Y24.701 E201.92481
G1 X238.415 Y24.546 E201.95543
G1 X239.067 Y24.47 E201.986
G1 X239.724 Y24.474 E202.01659
G1 X240.376 Y24.558 E202.0472
G1 X241.012 Y24.72 E202.07776
G1 X241.625 Y24.958 E202.10838
G1 X242.203 Y25.269 E202.13894
G1 X242.74 Y25.648 E202.16955
G1 X243.182 Y26.044 E202.19718
G1 X271.397 Y54.258 E204.05515
G1 X271.833 Y54.749 E204.08573
G1 X272.205 Y55.291 E204.11634
G1 X272.509 Y55.873 E204.14691
G1 X272.74 Y56.488 E204.17751
G1 X272.895 Y57.127 E204.20812
G1 X272.971 Y57.779 E204.23869
G1 X272.967 Y58.436 E204.26928
G1 X272.883 Y59.088 E204.29989
G1 X272.721 Y59.724 E204.33045
G1 X272.483 Y60.337 E204.36107
G1 X272.172 Y60.915 E204.39164
G1 X271.793 Y61.452 E204.42224
G1 X271.397 Y61.894 E204.44987
G1 X59.335 Y273.956 E218.41452
G1 X58.843 Y274.392 E218.44513
G1 X58.302 Y274.764 E218.4757
G1 X57.72 Y275.068 E218.50628
G1 X57.105 Y275.299 E218.53687
G1 X56.466 Y275.454 E218.56748
G1 X55.814 Y275.53 E218.59805
G1 X55.157 Y275.526 E218.62864
G1 X54.505 Y275.442 E218.65925
G1 X53.869 Y275.28 E218.68981
G1 X53.256 Y275.042 E218.72043
G1 X52.678 Y274.731 E218.751
G1 X52.141 Y274.352 E218.7816
G1 X51.699 Y273.956 E218.80924
G1 X23.484 Y245.742 E220.66721
G1 X23.048 Y245.251 E220.69778
G1 X22.676 Y244.709 E220.72839
G1 X22.372 Y244.127 E220.75897
G1 X22.141 Y243.512 E220.78956
G1 X21.986 Y242.873 E220.82018
G1 X21.91 Y242.221 E220.85074
G1 X21.914 Y241.564 E220.88134
G1 X21.998 Y240.912 E220.91195
G1 X22.16 Y240.276 E220.94251
G1 X22.398 Y239.663 E220.97313
G1 X22.709 Y239.085 E221.00369
G1 X23.088 Y238.548 E221.03429
G1 X23.484 Y238.106 E221.06193
G1 X235.546 Y26.044 E235.02657
G0 F6000 X235.828 Y26.326
G1 F1200 X236.303 Y25.909 E235.056
G1 X236.826 Y25.554 E235.08544
G1 X237.39 Y25.268 E235.11488
G1 X237.985 Y25.056 E235.1443
G1 X238.603 Y24.92 E235.17376
G1 X239.232 Y24.864 E235.20317
G1 X239.864 Y24.887 E235.23261
G1 X240.488 Y24.99 E235.26206
G1 X241.094 Y25.171 E235.29151
G1 X241.672 Y25.426 E235.32093
G1 X242.213 Y25.753 E235.35037
G1 X242.899 Y26.326 E235.39199
G1 X271.114 Y54.54 E237.24996
G1 X271.532 Y55.015 E237.27942
G1 X271.887 Y55.538 E237.30885
G1 X272.173 Y56.102 E237.3383
G1 X272.385 Y56.697 E237.36771
G1 X272.521 Y57.315 E237.39718
G1 X272.577 Y57.944 E237.42658
G1 X272.554 Y58.576 E237.45603
G1 X272.451 Y59.2 E237.48548
G1 X272.27 Y59.805 E237.51488
G1 X272.015 Y60.384 E237.54434
G1 X271.688 Y60.925 E237.57378
G1 X271.115 Y61.612 E237.61544
G1 X59.053 Y273.674 E251.58008
G1 X58.578 Y274.091 E251.60951
G1 X58.055 Y274.446 E251.63895
G1 X57.491 Y274.732 E251.66839
G1 X56.896 Y274.944 E251.6978
G1 X56.278 Y275.08 E251.72727
G1 X55.649 Y275.136 E251.75667
G1 X55.017 Y275.113 E251.78612
G1 X54.393 Y275.01 E251.81557
G1 X53.787 Y274.829 E251.84502
G1 X53.209 Y274.574 E251.87444
G1 X52.668 Y274.247 E251.90387
G1 X51.982 Y273.674 E251.94549
G1 X23.767 Y245.46 E253.80347
G1 X23.349 Y244.985 E253.83293
G1 X22.994 Y244.462 E253.86236
G1 X22.708 Y243.898 E253.89181
G1 X22.496 Y243.303 E253.92122
G1 X22.36 Y242.685 E253.95068
G1 X22.304 Y242.056 E253.98009
G1 X22.327 Y241.424 E254.00954
G1 X22.43 Y240.8 E254.03899
G1 X22.611 Y240.195 E254.06839
G1 X22.866 Y239.616 E254.09785
G1 X23.193 Y239.075 E254.12729
G1 X23.766 Y238.388 E254.16894
G1 X235.828 Y26.326 E268.13359
G0 F6000 X236.111 Y26.609
G1 F1200 X236.567 Y26.21 E268.1618
G1 X237.072 Y25.874 E268.19005
G1 X237.616 Y25.607 E268.21826
G1 X238.191 Y25.414 E268.24651
G1 X238.786 Y25.298 E268.27473
G1 X239.392 Y25.262 E268.303
